assets/images/ywc18/vertical-line.svg

<svg width="16" height="205" viewBox="0 0 16 205" fill="none" xmlns="http://www.w3.org/2000/svg">
<mask maskUnits="userSpaceOnUse" x="0" y="0" width="0" height="0" fill="black">
<rect fill="white" width="0" height="0"/>
</mask>
<path d="M8.70711 0.354661C8.31658 -0.0358634 7.68342 -0.0358635 7.29289 0.354661L0.928932 6.71862C0.538407 7.10915 0.538407 7.74231 0.928932 8.13284C1.31946 8.52336 1.95262 8.52336 2.34315 8.13284L8 2.47598L13.6569 8.13284C14.0474 8.52336 14.6805 8.52336 15.0711 8.13284C15.4616 7.74231 15.4616 7.10915 15.0711 6.71862L8.70711 0.354661ZM7.29288 203.769C7.68341 204.159 8.31657 204.159 8.7071 203.769L15.0711 197.405C15.4616 197.014 15.4616 196.381 15.0711 195.991C14.6805 195.6 14.0474 195.6 13.6568 195.991L7.99999 201.648L2.34314 195.991C1.95261 195.6 1.31945 195.6 0.928924 195.991C0.538399 196.381 0.538399 197.014 0.928924 197.405L7.29288 203.769ZM7 1.06177L7 3.58677L9 3.58677L9 1.06177L7 1.06177ZM7 8.63677L7 13.6868L9 13.6868L9 8.63677L7 8.63677ZM7 18.7368L7 23.7868L9 23.7868L9 18.7368L7 18.7368ZM7 28.8368L7 33.8868L9 33.8868L9 28.8368L7 28.8368ZM7 38.9368L7 43.9868L9 43.9868L9 38.9368L7 38.9368ZM7 49.0368L7 54.0868L9 54.0868L9 49.0368L7 49.0368ZM7 59.1368L7 64.1868L9 64.1868L9 59.1368L7 59.1368ZM7 69.2368L7 74.2868L9 74.2868L9 69.2368L7 69.2368ZM7 79.3368L7 84.3868L9 84.3868L9 79.3368L7 79.3368ZM7 89.4368L7 94.4868L9 94.4868L9 89.4368L7 89.4368ZM7 99.5368L7 104.587L9 104.587L9 99.5368L7 99.5368ZM7 109.637L6.99999 114.687L8.99999 114.687L9 109.637L7 109.637ZM6.99999 119.737L6.99999 124.787L8.99999 124.787L8.99999 119.737L6.99999 119.737ZM6.99999 129.837L6.99999 134.887L8.99999 134.887L8.99999 129.837L6.99999 129.837ZM6.99999 139.937L6.99999 144.987L8.99999 144.987L8.99999 139.937L6.99999 139.937ZM6.99999 150.037L6.99999 155.087L8.99999 155.087L8.99999 150.037L6.99999 150.037ZM6.99999 160.137L6.99999 165.187L8.99999 165.187L8.99999 160.137L6.99999 160.137ZM6.99999 170.237L6.99999 175.287L8.99999 175.287L8.99999 170.237L6.99999 170.237ZM6.99999 180.337L6.99999 185.387L8.99999 185.387L8.99999 180.337L6.99999 180.337ZM6.99999 190.437L6.99999 195.487L8.99999 195.487L8.99999 190.437L6.99999 190.437ZM6.99999 200.537L6.99999 203.062L8.99999 203.062L8.99999 200.537L6.99999 200.537Z" fill="#FF5D29" mask="url(#)"/>
</svg>

<svg width="16" height="205" fill="none" xmlns="http://www.w3.org/2000/svg"><path d="M8.7.35a1 1 0 00-1.4 0L.92 6.72a1 1 0 001.41 1.41L8 2.48l5.66 5.65a1 1 0 101.41-1.41L8.71.35zM7.3 203.77a1 1 0 001.4 0l6.37-6.37a1 1 0 10-1.41-1.4L8 201.64l-5.66-5.66a1 1 0 10-1.41 1.41l6.36 6.37zM7 1.07v2.52h2V1.06H7zm0 7.57v5.05h2V8.64H7zm0 10.1v5.05h2v-5.05H7zm0 10.1v5.05h2v-5.05H7zm0 10.1v5.05h2v-5.05H7zm0 10.1v5.05h2v-5.05H7zm0 10.1v5.05h2v-5.05H7zm0 10.1v5.05h2v-5.05H7zm0 10.1v5.05h2v-5.05H7zm0 10.1v5.05h2v-5.05H7zm0 10.1v5.05h2v-5.05H7zm0 10.1v5.05h2v-5.05H7zm0 10.1v5.05h2v-5.05H7zm0 10.1v5.05h2v-5.05H7zm0 10.1v5.05h2v-5.05H7zm0 10.1v5.05h2v-5.05H7zm0 10.1v5.05h2v-5.05H7zm0 10.1v5.05h2v-5.05H7zm0 10.1v5.05h2v-5.05H7zm0 10.1v5.05h2v-5.05H7zm0 10.1v2.52h2v-2.52H7z" fill="#FF5D29" mask="url(#)"/></svg>
